!!!COM: Beethoven, Ludwig van
!!!CDT: 1770///-1827///
!!!OTL: Piano Sonata no. 3 in C major
!!!ODT: 1794///-1795///
!!!ODE: Joseph Haydn
!!!OMD: Adagio
!!!OPS: 2
!!!ONM: 3
!!!OMV: 2
**kern	**kern	**dynam
*staff2	*staff1	*staff1/2
*Ipiano	*Ipiano	*Ipiano
*clefF4	*clefG2	*
*k[f#c#g#d#]	*k[f#c#g#d#]	*
*E:	*E:	*
*M2/4	*M2/4	*
*MM50	*MM50	*
=1-	=1-	=1-
*	*^	*
!	!	!	!LO:DY:rj
4EE\ 4E\	(16.g#LL	4B	p
.	32f#k)	.	.
.	16g#'<	.	.
.	16a'<JJ	.	.
8AA\ 8D#\	8f#	8B	.
8r	8r	8ry	.
=2	=2	=2	=2
4GG#\ 4E\	(16.eLL	4B	.
.	32d#k)	.	.
.	16e'<	.	.
.	16f#'<JJ	.	.
8FF#\ 8F#\	8d#	8A 8B	.
8r	16r	8ryy	.
.	16B	.	.
*	*v	*v	*
=3	=3	=3
(16G#LL	(16B 16eLL	.
16D#	16B 16f#	.
16E	16B 16e 16g#	.
16AA 16AJJ)	16c#) 16f# 16aJJ	.
8BB 8B	8d# 8f#	.
16r	16r	.
16AA\ 16F#\	16d# 16b	.
=4	=4	=4
16GG# (16G#LL<	(16e 16bLL	.
16FF# 16D#	16B 16a	.
16EE 16E	16B 16g#	.
32AA 32AL	32c# 32cc#L	.
32F#JJJ)	32aJJJ)	.
8BB\ 8D#\	8B 8f#	.
8r	8r	.
=5	=5	=5
*	*^	*
4FF#\ 4F#\	(16.aLL	4c#	.
.	32g#k)	.	.
.	16a'<	.	.
.	16b'<JJ	.	.
8BB\ 8E#\	8c# 8g#	4ryyy	.
8r	8r	.	.
!!LO:LB:g=original
=6	=6	=6	=6
4AA 4C# 4A	(16.f#LL	4c#	.
.	32e#k)	.	.
.	16f#'<	.	.
.	16g#'<JJ	.	.
8GG#\ 8C#\ 8G#\	8B 8c# 8e#	4ryy	.
16r	16r	.	.
[16F# [16c#	[16en [<16a#	.	.
*	*v	*v	*
=7	=7	=7
16F#] (16c#LL]	16e] 16a#LL]	.
16BB 16BJJ)	16d# 16bJJ	.
16r	16r	.
[16E [16B	[16dn [<16g#	.
16E] 16BLL]	16d] 16g#LL]	.
16AA 16AJJ	16c# 16anJJ	.
16r	16r	.
16AA 16A	16c# 16f#	.
=8	=8	=8
*	*^	*
4BB\	8B (>8eL	8G#</L	.
.	8d# 8f#	8A\	.
8EE 8E	8e 8g#J)	8B\J	.
16r	8r	8ry	.
[16E [16A#	.	.	.
*	*v	*v	*
=9	=9	=9
16E] 16A#LL]	8f# (8ff#L	.
16D# 16BJJ	.	.
16r	16b 16bbJk)	.
[16Dn [16G#	16r	.
16D] 16G#LL]	8e (8eeL	.
16C# 16AnJJ	.	.
8r	16a 16aaJk)	.
.	16r	.
=10	=10	=10
*^	*	*
4r	4r	16.r	.
.	.	32b#	.
.	.	(32cc#LLL	.
.	.	32g#	.
.	.	32.a	.
.	.	64f#JJJk)	.
4F# 4A	4BBB 4BB	(8c#L	.
.	.	8d#J)	.
*v	*v	*	*
!!LO:LB:g=original
=11||	=11||	=11||
*k[f#]	*k[f#]	*
*e:	*e:	*
4EE 4E	32r	.
.	(32eLLL	.
.	32g	.
.	32bJJJ	.
.	32ccLLL	.
.	32b	.
.	32e	.
.	32bJJJ)	.
4GG 4G	32r	.
.	(32eLLL	.
.	32g	.
.	32bJJJ	.
.	32ccLLL	.
.	32b	.
.	32e	.
.	32bJJJ)	.
=12	=12	=12
!	!LO:TX:b:i:t=sempre legato	!
4FF# 4F#	32r	.
.	32d#LLL	.
.	32a	.
.	32bJJJ	.
.	32ccLLL	.
.	32b	.
.	32d#	.
.	32bJJJ	.
4AA 4A	32r	.
.	32d#LLL	.
.	32f#	.
.	32bJJJ	.
.	32ccLLL	.
.	32b	.
.	32d#	.
.	32bJJJ	.
=13	=13	=13
8GG\ 8G\	32r	.
.	32eLLL	.
.	32g	.
.	32bJJJ	.
*clefG2	*	*
16r	32ccLLL	.
.	32b	.
16bb	32g	.
.	32eJJJ	.
(16cccLL	32r	.
.	32aLLL	.
16aa	32f#	.
.	32ccJJJ	.
16gg	32gLLL	.
.	32b	.
16ff#JJ)	32a	.
.	32ccJJJ	.
*clefF4	*	*
!!LO:LB:g=original
=14	=14	=14
4GG\ 4G\	32r	.
.	32dLLL	.
.	32g	.
.	32bJJJ	.
.	32ccLLL	.
.	32b	.
.	32g	.
.	32dJJJ	.
4BB 4B	32r	.
.	32dLLL	.
.	32g	.
.	32ddJJJ	.
.	32cc#LLL	.
.	32dd	.
.	32g	.
.	32dJJJ	.
=15	=15	=15
4AA 4A	32r	.
.	32f#LLL	.
.	32a	.
.	32ccnJJJ	.
.	32bLLL	.
.	32cc	.
.	32a	.
.	32f#JJJ	.
4C 4c	32r	.
.	32f#LLL>	.
.	32a	.
.	32ee-JJJ	.
.	32ddLLL>	.
.	32ee-	.
.	32a	.
.	32f#JJJ	.
=16	=16	=16
8BB 8B	32r	.
.	32dLLL	.
.	32g	.
.	32bJJJ	.
*clefG2	*	*
16r	32cc#LLL>	.
.	32dd	.
16ddd	32b	.
.	32gJJJ	.
(16cccnLL	32f#LLL	.
.	32a	.
16bb	32g	.
.	32bJJJ	.
16aa	32aLLL>	.
.	32ccn	.
16ggJJ)	32b	.
.	32ddJJJ	.
*clefF4	*	*
!!LO:LB:g=original
=17	=17	=17
8C 8c	32r	.
.	32eLLL	.
.	32a	.
.	32ccJJJ	.
*clefG2	*	*
16r	32dd#LLL>	.
.	32ee	.
16eee	32cc	.
.	32aJJJ	.
(16dddnLL	32g#LLL	.
.	32b	.
16ccc	32a	.
.	32ccJJJ	.
16bb	32bLLL>	.
.	32ddn	.
16aaJJ)	32cc	.
.	32eeJJJ	.
*clefF4	*	*
=18	=18	=18
4D	32r	.
.	32BLLL	.
.	32d	.
.	32gJJJ	.
.	32aLLL	.
.	32g	.
.	32B	.
.	32gJJJ	.
4DD 4D	32r	.
.	32ALLL	.
.	32c	.
.	32f#JJJ	.
.	32gLLL	.
.	32f#	.
.	32A	.
.	32f#JJJ	.
=19	=19	=19
16GG	32r	.
.	32BLLL	.
*clefG2	*	*
!	!	!LO:HP:b=2
(8cc#L	32d	>
.	32gJJJ	.
.	32aLLL	.
.	32g	.
16ddJk)	32B	]
.	32gJJJ	.
*clefF4	*	*
16BB	32r	.
.	32BLLL	.
*clefG2	*	*
!	!	!LO:HP:b=2
(8ff#L	32d	>
.	32gJJJ	.
.	32aLLL	.
.	32g	.
16ggJk)	32B	]
.	32gJJJ	.
*clefF4	*	*
!!LO:LB:g=original
=20	=20	=20
16C\	32r	.
.	32ALLL	.
*clefG2	*	*
!	!	!LO:HP:b=2
(8dd#L	32e	>
.	32gJJJ	.
.	32aLLL	.
.	32g	.
16eeJk)	32A	]
.	32gJJJ	.
*clefF4	*	*
16C#\	32r	.
.	32ALLL	.
*clefG2	*	*
!	!	!LO:HP:b=2
(8ddd#XL	32e	>
.	32gJJJ	.
.	32aLLL	.
.	32g	.
16eeeJk)	32A	]
.	32gJJJ	.
*clefF4	*	*
=21	=21	=21
16D	32r	.
.	32BLLL	.
*clefG2	*	*
(8cc#^<L	32d	.
.	32gJJJ	.
.	32aLLL	.
.	32g	.
16ddJk)	32B	.
.	32gJJJ	.
*clefF4	*	*
16D	32r	.
.	16ALL	.
*clefG2	*	*
(8e-^<L	.	.
.	32cJJk	.
.	32f#LLL	.
.	32c	.
16dJk)	32A	.
.	32cJJJ	.
*clefF4	*	*
=22	=22	=22
16BB	32r	.
.	32BLLL	.
*clefG2	*	*
(8cc#^<L	32d	.
.	32gJJJ	.
.	32aLLL	.
.	32g	.
16ddJk)	32B	.
.	32gJJJ	.
*clefF4	*	*
16BB	32r	.
.	32BLLL	.
*clefG2	*	*
(8gg^<L	32d	.
.	32gJJJ	.
.	32aLLL	.
.	32g	.
16ddJk)	32B	.
.	32gJJJ	.
*clefF4	*	*
!!LO:LB:g=original
=23	=23	=23
16C\	32r	.
.	32ALLL	.
*clefG2	*	*
(8dd#^<L	32e	.
.	32gJJJ	.
.	32aLLL	.
.	32g	.
16eeJk)	32A	.
.	32gJJJ	.
*clefF4	*	*
16C#\	32r	.
.	32ALLL	.
*clefG2	*	*
(8gg^<L	32e	.
.	32gJJJ	.
.	32aLLL	.
.	32g	.
16eeJk)	32A	.
.	32gJJJ	.
*clefF4	*	*
=24	=24	=24
16D	32r	.
.	16BLL	.
*clefG2	*	*
(8c#^L	.	.
.	32gJJk	.
.	32aLLL	.
.	32g	.
16dJk)	32B	.
.	32gJJJ	.
*clefF4	*	*
16D	32r	.
.	16ALL	.
*clefG2	*	*
(8e-^L	.	.
.	32cJJk	.
.	32f#LLL	.
.	32c	.
16dJk)	32A	.
.	32cJJJ	.
*clefF4	*	*
=25	=25	=25
4GG\ 4G\	32r	.
.	32BLLL	.
.	32d	.
.	32gJJJ	.
.	32aLLL	.
.	32g	.
.	32B	.
.	32gJJJ	.
4FF#\ 4F#\	32r	.
.	32ALLL	.
.	32B	.
.	32d#JJJ	.
.	32eLLL	.
.	32d#	.
.	32A	.
.	32d#JJJ	.
!!LO:LB:g=original
=26	=26	=26
4EE	32r	ff
.	32GLLL	.
.	32B	.
.	32eJJJ	.
.	32f#LLL	.
.	32e	.
.	32G	.
.	32eJJJ	.
4GGG 4GG	32r	.
.	32GLLL	.
.	32B	.
.	32eJJJ	.
.	32f#LLL	.
.	32e	.
.	32G	.
.	32eJJJ	.
=27	=27	=27
4FFF# 4FF#	32r	.
.	32ALLL	.
.	32c	.
.	32d#JJJ	.
.	32eLLL	.
.	32d#	.
.	32A	.
.	32d#JJJ	.
4AAA 4AA	32r	.
.	32cLLL	.
.	32d#	.
.	32f#JJJ	.
.	32gLLL	.
.	32f#	.
.	32c	.
.	32f#JJJ	.
=28	=28	=28
8GGG# 8GG#	32r	p
.	32BLLL	.
.	32d	.
.	32fnJJJ	.
*clefG2	*	*
16r	32eLLL	.
.	32f	.
(16ffn	32d	.
.	32BJJJ	.
16eeLL	32r	.
.	32BLLL	.
16dd	32G#	.
.	32fJJJ	.
16cc	32ALLL	.
.	32e	.
16bJJ)	32d	.
.	32g#XJJJ	.
*clefF4	*	*
!!LO:LB:g=original
=29	=29	=29
4AAA 4AA	32r	ff
.	32ALLL	.
.	32c	.
.	32eJJJ	.
.	32fnLLL	.
.	32e	.
.	32c	.
.	32AJJJ	.
4CC 4C	32r	.
.	32ALLL	.
.	32c	.
.	32eJJJ	.
.	32fLLL	.
.	32e	.
.	32c	.
.	32AJJJ	.
=30	=30	=30
4BBB 4BB	32r	.
.	32G#LLL	.
.	32d	.
.	32eJJJ	.
.	32fnLLL	.
.	32e	.
.	32d	.
.	32G#JJJ	.
4DD 4D	32r	.
.	32G#LLL	.
.	32B	.
.	32eJJJ	.
.	32fLLL	.
.	32e	.
.	32B	.
.	32G#JJJ	.
=31	=31	=31
8CC# 8C#	32r	p
.	32GnLLL	.
.	32A#	.
.	32eJJJ	.
*clefG2	*	*
16r	32f#XLLL	.
.	32g	.
(16gg	32e	.
.	32c#JJJ	.
16ff#LL	32r	.
.	32c#LLL	.
16ee	32A#X	.
.	32gJJJ	.
16dd	32BLLL	.
.	32f#	.
16cc#XJJ)	32e	.
.	32a#XJJJ	.
*clefF4	*	*
!!LO:LB:g=original
=32	=32	=32
4DD 4D	32r	ff
.	32BLLL	.
.	32d	.
.	32f#JJJ	.
.	32a#LLL	.
.	32b	.
.	32B	.
.	32bJJJ	.
4FF# 4F#	32r	.
.	32BLLL	.
.	32d	.
.	32bJJJ	.
.	32a#XLLL	.
.	32b	.
.	32d	.
.	32bJJJ	.
=33	=33	=33
4EE 4E	32r	.
.	32cLLL	.
.	32g	.
.	32bJJJ	.
.	32ccLLL	.
.	32b	.
.	32c	.
.	32bJJJ	.
4GG 4G	32r	.
.	32cLLL	.
.	32e	.
.	32bJJJ	.
.	32ccLLL	.
.	32b	.
.	32e	.
.	32bJJJ	.
=34	=34	=34
8FF# 8F#	32r	.
.	32cLLL	.
.	32d#	.
.	32aJJJ	.
*clefG2	*	*
16r	32ccLLL	.
.	32a	.
(16ccc	32d#	.
.	32aJJJ	.
16bbLL	32r	.
.	32f#LLL	.
16aa	32d#	.
.	32ccJJJ	.
16gg	32eLLL	.
.	32b	.
16ff#JJ)	32a	.
.	32dd#XJJJ	.
!!LO:LB:g=original
=35	=35	=35
8ee	32r	.
.	32eLLL	.
.	32g	.
.	32eeJJJ	.
*clefF4	*	*
16r	32dd#LLL>	.
.	32ee	.
(16BB/ 16B/	32e	.
.	32eeJJJ	.
16AA 16ALL	32r	.
.	32eLLL	.
16GG 16G	32g	.
.	32eeJJJ	.
16FF# 16F#	32dd#LLL>	.
.	32ee	.
16EE) 16EJJ	32e	.
.	32eeJJJ	.
=36	=36	=36
8AAA# 8AA#	32r	.
.	32A#LLL	.
.	32c#	.
.	32eJJJ	.
*clefG2	*	*
16r	32f#LLL	.
.	32g	.
(16gg	32e	.
.	32c#JJJ	.
16ff#LL	32r	.
.	32A#LLL	.
16ee	32c#	>
.	32gJJJ	.
16dd#	32f#LLL	.
.	32g	]
16eeJJ)	32A#	.
.	32gJJJ	.
*clefF4	*	*
=37	=37	=37
16BB	32r	p
.	32d#LLL	.
*clefG2	*	*
(8eeL	32f#	.
.	32bJJJ	.
.	32a#LLL	.
.	32b	.
16dd#Jk)	32f#	.
.	32d#JJJ	.
*clefF4	*	*
16B	32r	.
.	32d#XLLL	.
*clefG2	*	*
(8ccc^<L	32f#	.
.	32anJJJ	.
.	32gLLL	.
.	32a	.
16bbJk)	32f#	.
.	32d#JJJ	.
*clefF4	*	*
!!LO:LB:g=original
=38	=38	=38
16B	32r	.
.	32eLLL	.
*clefG2	*	*
(8aa^<L	32g	.
.	32bJJJ	.
.	32a#LLL	.
.	32b	.
16ggJk)	32g	.
.	32eJJJ	.
*clefF4	*	*
16B	32r	.
.	32eLLL	.
*clefG2	*	*
(8ff#^<L	32g	.
.	32cc#JJJ	.
.	32gLLL	.
.	32cc#	.
16eeJk)	32g	.
.	32eJJJ	.
*clefF4	*	*
=39	=39	=39
16BB	32r	.
.	32d#LLL	.
*clefG2	*	*
!LO:DY:rj	!	!
(8cLz	32f#	.
.	32aJJJ	.
.	32gLLL	.
.	32a	.
16BJk)	32f#	.
.	32d#JJJ	.
*clefF4	*	*
16BB	32r	.
.	32BLLL	.
*clefG2	*	*
(8ee^<L	32f#	.
.	32aJJJ	.
.	32g#LLL	.
.	32a	.
16dd#Jk)	32f#	.
.	32BJJJ	.
*clefF4	*	*
=40	=40	=40
16BB	32r	.
.	32BLLL	.
*clefG2	*	*
(8ff#^<L	32e	.
.	32gnJJJ	.
.	32f#LLL	.
.	32g	.
16eeJk)	32e	.
.	32BJJJ	.
*clefF4	*	*
16BB	32r	.
.	32c#LLL	.
*clefG2	*	*
(8ggL	32e	.
.	32gJJJ	.
.	32f#LLL	.
.	32g	.
16a#Jk)	32e	.
.	32c#JJJ	.
*clefF4	*	*
!!LO:LB:g=original
=41	=41	=41
(<16BBLK	32r	<
.	32d#LLL	.
8B	32f#	.
.	32bJJJ	.
.	32a#LLL	.
.	32b	.
16F#Jk	32d#	.
.	32bJJJ	.
16D#LK	32r	.
.	32BLLL	.
8BB	32d#	.
.	32bJJJ	.
.	32a#LLL	.
.	32b	.
16FF#Jk)	32d#	.
.	32bJJJ	[
=42	=42	=42
(16DD#LK	32r	>
.	32BLLL	.
8BBB	32d#	.
.	32bJJJ	.
.	32cc#LLL	.
.	32b	.
16DD#Jk	32d#	.
.	32bJJJ	]
16FF#LK	32r	pp
.	32BLLL	.
8BB	32d#	.
.	32aJJJ	.
.	32bLLL	.
.	32a	.
16D#Jk)	32B	.
.	32aJJJ	.
=43||	=43||	=43||
*k[f#c#g#d#]	*k[f#c#g#d#]	*
*E:	*E:	*
*^	*	*
4B	4EE 4E	(16.g#LL	.
.	.	32f#k)	.
.	.	16g#'	.
.	.	16a'JJ	.
8B	8AA 8D#	8f#	.
8r	8r	8r	.
=44	=44	=44	=44
4B/	4GG# 4E	(16.eLL	.
.	.	32d#k)	.
.	.	16e'	.
.	.	16f#'JJ	.
4ryyy	8FF#\ 8F#\	8A< 8B< 8d#	.
.	8r	16r	.
.	.	16B	.
*v	*v	*	*
!!LO:LB:g=original
=45	=45	=45
(16G#LL	(16B 16eLL	.
16D#	16B 16f#	.
16E	16B 16e 16g#	.
16AA 16AJJ)	16c#) 16f# 16aJJ	.
8BB 8B	8d# 8f#	.
16r	16r	.
16AA\ 16F#\	16d# 16b	.
=46	=46	=46
16GG# (16G#LL<	(16e 16bLL	.
16FF# 16D#	16B 16a	.
16EE 16E	16B 16g#	.
32AA 32AL	32c# 32cc#L	.
32F#JJJ)	32aJJJ)	.
8BB 8D#	8B 8f#	.
8r	8r	.
=47	=47	=47
*	*^	*
4FF# 4F#	(<16.aLL	4c#	.
.	32g#k)	.	.
.	16a'<	.	.
.	16b'<JJ	.	.
8BB\ 8E#\	8g#	8c#	.
8r	8r	8r	.
=48	=48	=48	=48
4AA 4C# 4A	(<16.f#LL	4c#	.
.	32e#k)	.	.
.	16f#'<	.	.
.	16g#'<JJ	.	.
8GG#\ 8C#\ 8G#\	8B 8c# 8e#	4r	.
16r	16r	.	.
[16F# [16c#	[<16en [<16a#	.	.
*	*v	*v	*
=49	=49	=49
16F#] (16c#LL]	(16e] 16a#LL]	.
16BB 16BJJ)	16d#) 16bJJ	.
16r	16r	.
[16E [16B	[16dn [<16g#	.
16E] (16BLL]	(16d] 16g#LL]	.
16AA 16AJJ)	16c#) 16anJJ	.
16r	16r	.
16AA 16A	16c# 16f#	.
!!LO:LB:g=original
=50	=50	=50
*	*^	*
4BB\	8B (>8eL	8G#</L	.
.	8d# 8f#	8A\	.
8EE 8E	8e 8g#J)	8B\J	.
16r	8r	8r	.
[16E [16A#	.	.	.
*	*v	*v	*
=51	=51	=51
16E] (16A#LL]	8f# (8ff#L	.
16D# 16BJJ)	.	.
16r	16b 16bbJk)	.
[16Dn [16G#	16r	.
16D] (16G#LL]	8e (8eeL	.
16C# 16AnJJ)	.	.
8r	16a 16aaJk)	.
.	16r	.
=52	=52	=52
*^	*	*
4r	4r	16.r	.
.	.	32b#/	.
.	.	(32cc#LLL	.
.	.	32g#	.
.	.	32.a	.
.	.	64f#JJJk)	.
4F# 4A	4BBB 4BB	(8c#L	.
.	.	8d#J)	.
*v	*v	*	*
=53	=53	=53
!	!	!LO:DY:rj
16.CCn 16.CnLL	(>16.eLL 16.E< 16.Gn<	ff
32BBB 32BBk	32dnk) 32Dn< 32G<k	.
16CC 16C	16e'> 16E<'> 16G<'>	.
16DDn 16DnJJ	16fn'>JJ 16Fn<'> 16G<'>	.
8BBB 8BB	8d'> 8D<'> 8G<'>	.
8r	8r	.
=54	=54	=54
16.DDn 16.DnLL	(>16.fnLL 16.Gn< 16.B<	.
32CCn 32Cnk	32ek) 32G< 32cn<k	.
16DD 16D	16f'> 16G<'> 16B<'>	.
16EE 16EJJ	16gn'>JJ 16G<'> 16c<'>	.
8CC 8C	8e'> 8G<'> 8c<'>	.
8r	8r	.
!!LO:LB:g=original
=55	=55	=55
!	!LO:TX:a:i:t=sempre legato	!
4CCn 4Cn	32r	p <
.	32cnLLL	.
.	32e	.
.	32gnJJJ	.
.	32aLLL	.
.	32g	.
.	32c	.
.	32gJJJ	.
4EE 4E	32r	.
.	32cLLL	.
.	32e	.
.	32gJJJ	.
.	32aLLL	.
.	32g	.
.	32c	.
.	32gJJJ	[[
=56	=56	=56
4DDn 4Dn	32r	>
.	32BLLL	.
.	32fn	.
.	32g#XJJJ	.
.	32aLLL	.
.	32g#	.
.	32B	.
.	32g#JJJ	.
4GG#X\ 4G#X\	32r	.
.	32dnLLL	.
.	32f	.
.	32bJJJ	.
.	32ccnLLL	.
.	32b	.
.	32d	.
.	32bJJJ	.
=57	=57	=57
4AA 4A	32r	.
.	32cnLLL	.
.	32e	.
.	32ccnJJJ	.
.	32bLLL	.
.	32cc	.
.	32e	.
.	32ccJJJ	]
4AA# 4A#	32r	sf
.	32eLLL	.
.	32gn	.
.	32eeJJJ	.
.	32dd#XLLL	.
.	32ee	.
.	32g	.
.	32eJJJ	.
!!LO:LB:g=original
=58	=58	=58
4BB 4B	32r	.
.	32eLLL	p
.	32g#X	.
.	32bJJJ	.
.	32a#LLL	.
.	32b	.
.	32g#	.
.	32eJJJ	.
4BBB 4BB	32r	.
.	32AnLLL	pp
.	32d#	.
.	32f#JJJ	.
.	32e#LLL	.
.	32f#	.
.	32d#	.
.	32AJJJ	.
=59	=59	=59
16EE	32r	.
.	32G#LLL	.
*clefG2	*	*
(8dd#^<L	32B	.
.	32eJJJ	.
.	32f#LLL	.
.	32e	.
16eeJk)	32G#	.
.	32eJJJ	.
*clefF4	*	*
16Dn	32r	.
.	32G#LLL	.
*clefG2	*	*
(8ff#^<L	32B	.
.	32eJJJ	.
.	32f#LLL	.
.	32e	.
16eeJk)	32G#	.
.	32eJJJ	.
*clefF4	*	*
=60	=60	=60
16C#\	32r	.
.	32ALLL	.
*clefG2	*	*
(8bb#^<L	32c#	.
.	32eJJJ	.
.	32f#LLL	.
.	32e	.
16ccc#Jk)	32A	.
.	32eJJJ	.
*clefF4	*	*
16C#\	32r	.
.	32A#LLL	.
*clefG2	*	*
(8ddd#^<L	32c#	.
.	32eJJJ	.
.	32f#LLL	.
.	32e	.
16eeeJk)	32A#	.
.	32eJJJ	.
*clefF4	*	*
!!LO:LB:g=original
=61	=61	=61
16BB	32r	.
.	16BLL	.
*clefG2	*	*
(8a#^L<	.	.
.	32eJJk	.
.	32g#LLL	.
.	32e	.
16bJk)	32G#	.
.	32eJJJ	.
*clefF4	*	*
16BB	32r	.
.	16AnLL	.
*clefG2	*	*
!LO:DY:rj	!	!
(8cnzL	.	.
.	32d#JJk	.
.	32f#LLL	.
.	32d#	.
16BJk)	32A	.
.	32d#JJJ	.
*clefF4	*	*
=62	=62	=62
16E	32r	.
.	32G#LLL	.
*clefG2	*	*
(8a#^<L<	32B	.
.	32eJJJ	.
.	32f#LLL	.
.	32e	.
16bJk)	32G#	.
.	32eJJJ	.
*clefF4	*	*
16Dn	32r	.
.	32G#LLL	.
*clefG2	*	*
(8ff#^<L	32B	.
.	32eJJJ	.
.	32f#LLL	.
.	32e	.
16eeJk)	32G#	.
.	32eJJJ	.
*clefF4	*	*
=63	=63	=63
16C#\	32r	.
.	32ALLL	.
*clefG2	*	*
(8b#^<L	32c#	.
.	32eJJJ	.
.	32f#LLL	.
.	32e	.
16cc#Jk)	32A	.
.	32eJJJ	.
*clefF4	*	*
16C#\	32r	.
.	32GnLLL	.
*clefG2	*	*
(8ff#^<L	32A#	.
.	32eJJJ	.
.	32f#LLL	.
.	32e	.
16eeJk)	32G	.
.	32eJJJ	.
*clefF4	*	*
!!LO:LB:g=original
=64	=64	=64
16BB	32r	.
.	16G#XLL	.
*clefG2	*	*
(8a#^L	.	.
.	32eJJk	.
.	32f#LLL	.
.	32e	.
16bJk)	32G#	.
.	32eJJJ	.
*clefF4	*	*
16BB	32r	.
.	16ALL	.
*clefG2	*	*
!LO:DY:rj	!	!
(8cnzL	.	.
.	32d#JJk	.
.	32f#LLL	.
.	32d#	.
16BJk)	32A	.
.	32d#JJJ	.
*clefF4	*	*
=65	=65	=65
16BB	32r	.
.	32G#LLL	.
*clefG2	*	*
(8dd#^<L	32B	.
.	32d#JJJ	.
.	32f#LLL	.
.	32e	.
16eeJk)	32G#	.
.	32eJJJ	.
*clefF4	*	*
16BB	32r	.
.	16ALL	.
*clefG2	*	*
!LO:DY:rj	!	!
(8cnzL	.	.
.	32d#JJk	.
.	32f#LLL	.
.	32d#	.
16BJk)	32A	.
.	32d#JJJ	.
*clefF4	*	*
=66	=66	=66
8EE 8E	32r	.
.	(32G#LLL	.
.	32B	.
.	32eJJJ	.
8r	32g#LLL	.
.	32e	.
.	32b	.
.	32g#JJJ	.
4r	32eeLLL	.
.	32b	.
.	32gg#	.
.	32eeJJJ	.
.	32bbLLL	.
.	32aa#	.
.	32aan	.
.	32ff#JJJ)	.
*clefG2	*	*
!!LO:LB:g=original
=67	=67	=67
4e 4b	(16.gg#LL	p
.	32ff#k)	.
.	16gg#'	.
.	16aa'JJ	.
8a 8b	8dd# 8ff#	.
8r	8r	.
=68	=68	=68
(4g# 4b	(16.eeLL	.
.	64ff#LL	.
.	64eeJJJJ	.
.	32dd#LLL	.
.	32ee	.
.	32gg#	.
.	32ff#JJJ	.
8f# 8a)	16eeLL	.
.	16dd#JJ)	.
8r	16.r	.
.	(32b	.
*clefF4	*	*
=69	=69	=69
16g#>LL	32eeLLL)	.
.	64rff	.
.	(<64bJJJk	.
16d#> 16f#>	32ff#LLL)	.
.	64rff	.
.	(<64bJJJk	.
16e> 16g#>	32gg#LLL)	.
.	64rff	.
.	(<64bJJJk	.
16A 16f#>JJ	16cc#) 16aa	.
8B 8d#>	8b/ 8ff#/	.
16r	32.raa	.
.	(</64dd#	.
16A 16f#>	32bbLLL)	.
.	64raa	.
.	(>64eeJJJk	.
!!LO:LB:g=original
=70	=70	=70
*	*^	*
16G#LL 16g#>	32bbLLL>)	16ryy	.
.	64rff	.	.
.	(<64bJJJk	.	.
16F# 16d#>	32aaLLL>)	16ryy	.
.	64rff	.	.
.	(<64bJJJk	.	.
16E 16e>	32gg#LLL>)	16ryy	.
.	64rff	.	.
.	(<64cc#JJJk	.	.
32.AL 32.a>	32.ccc#LLL>)	16ryy	.
64f#>JJJk	64aaJJJk	.	.
8B 8d#	8ff#	8b	.
8r	8ry	8r	.
=71	=71	=71	=71
4F# 4c# 4f#	(<16.aaLL	4a 4cc#	.
.	32gg#k)	.	.
.	16aa'<	.	.
.	16bb'<JJ	.	.
8G# 8c# 8e	4ryyy	8g#/ 8cc#/ 8gg#/	.
8r	.	16.r	.
.	.	[32f## [32cc# [32ff##	ff
*	*v	*v	*
=72	=72	=72
4AA 4C# (4A	4f##] 4cc#] (4ff##]	ff
8GG#:\ 8BB#:\ 8D#:\ 8G#:\)	8g#: 8b#: 8dd#: 8gg#:)	.
*clefG2	*	*
16r	16r	.
[16f# [16cc#	[16ee [16aa#	.
=73	=73	=73
(16f#] 16cc#LL]	16ee] (16aa#LL]	.
16B) 16bJJ	16dd# 16bbJJ)	.
16r	16r	.
[16e [<16b	[16ddn [16gg#	.
(16e] 16bLL]	16dd] (16gg#LL]	.
16A) 16aJJ	16cc# 16aanJJ)	.
8r	16r	.
.	(32.aaLLL	.
.	64ff#JJJk)	.
*clefF4	*	*
!!LO:LB:g=original
=74	=74	=74
*	*^	*
(4B	16cc#SSsLL	(<4f# (<4a	.
.	32.eeL	.	.
.	64dd#JJJk	.	.
.	(<16dd#SsSLL	.	.
.	32.ff#L	.	.
.	64eeJJJk)	.	.
8c#)	8ee	8e) 8g#)	.
16r	8r	8r	.
[16AAA# [16AA#	.	.	.
*	*v	*v	*
=75	=75	=75
(16AAA#] 16AA#LL]	(8e 8eeL	.
16BBB 16BBJJ)	.	.
16r	16d#) 16dd#Jk	.
[16GGG# [16GG#	16r	.
(16GGG#] 16GG#LL]	(8dn 8ddnL	.
16AAAn 16AAnJJ)	.	.
8r	16c#) 16cc#Jk	.
.	16b# (16bb#	.
=76	=76	=76
4r	16cc# 16ccc#LL)	.
.	16g# (16gg#	.
.	16a 16aa)	.
.	16f# 16ff#JJ	.
4BB 4F# 4A	16e (16eeLL<	.
.	16d# 16dd#	.
.	16c# 16cc#	.
.	16d# 16dd#JJ)	.
=77	=77	=77
8E 8G#	16e 16eeLL	p
.	(16b'	.
8r	16b'	.
.	16b'JJ	.
(16.GG# 16.ELL	16b'LL>	.
.	16b'	.
32FF#) 32D#k	.	.
16GG#' 16E')	16b'	.
16AA' 16F#'JJ	16b'JJ)	.
!!LO:LB:g=original
=78	=78	=78
8FF# 8D#	(16b'LL	.
.	16b'	.
8r	16b'	.
.	16b'JJ	.
16.E (16.G#LL	16b'LL	.
.	16b'	.
32D# 32F#k)	.	.
16E' 16G#'	16b'	.
16F#' 16A'JJ	16b'JJ)	.
=79	=79	=79
8D# 8F#	(16b'LL	.
.	16b' 16bb'	.
8r	16b' 16bb'	.
.	16b' 16bb'JJ)	.
!	!LO:TURN:uacc=#	!
4G# 4ez>	16bbSSSLL	.
.	[16eeeJJ	.
.	32eeeLLL]	.
.	32ddd#'	.
.	32ccc#'	.
.	32bb#'JJJ	.
=80	=80	=80
4A; 4e;	16ddd#LK	.
.	8.ccc#;J	.
4r	16r	.
.	16ccc#TLL	f
.	16ddd#'	.
.	16eee'JJ	.
*	*clefF4	*
=81	=81	=81
4r	[4BBz	.
*	*	*^
!	!	!	!LO:DY:b=2:rj
4BBB 4AA	(32BBLLL]	pp	pp
*	*	*v	*v
.	32C#	.
.	32D#	.
.	32EJJJ	.
.	32F#LLL	.
.	32G#	.
.	32A	.
.	32D#JJJ)	.
=82	=82	=82
[4EE (>4AA	4D# (4F#	.
8EE] 8GG#)	8E)	.
8r	8r	.
==	==	==
*-	*-	*-
!!!RDF**kern: > = above
!!!RDF**kern: < = below
!!!verovio: beamFrenchStyle
!!!LOR: Durand 1915, plates 9327/9328, Paul Dukas, ed.
!!!PED: Dukas, Paul
!!!URL-vhv: https://verovio.humdrum.org/?file=beethoven/sonatas/sonata03-2.krn
!!!URL-pdf: https://github.com/craigsapp/beethoven-piano-sonatas/blob/master/reference-edition/sonata03-2.pdf
!!!ENC: Craig Stuart Sapp
!!!END: 2008/01/25
!!!EED: Craig Stuart Sapp
!!!EEV: 2022/04/22
